X: 21015
T: Julie's
R: jig
M: 6/8
K: Edorian
BEE BEE|AFE D3|fBB fBB|egf edc|
BEE BEE|AFE D3|fBB fBB|egf edc:|
[K:D]
|:d2a agf|edc dcA|Bbb bag|fee efg|
~a3 agf|edc d2A|Bcd efg|fdd d2d:|

